icon-themes/breeze_svg/cmd/32/insertendnote.svg

<svg viewBox="0 0 32 32" xmlns="http://www.w3.org/2000/svg"><path d="m5 4v21h7v3h10v-1h-9v-2h8v-17h5v11h1v-12h-6v-3c-5.333333 0-10.666667 0-16 0zm1 1h14v19h-14c0-6.333333 0-12.666667 0-19zm2 2v1h10v-1zm0 3v1h6v-1zm0 5v1h8v-1z" fill="#4d4d4d"/><path d="m24 20v1h1v-1zm-16 1v1h5v-1zm16 1v6h1v-6z" fill="#1d99f3"/></svg>

<svg xmlns="http://www.w3.org/2000/svg" viewBox="0 0 32 32">
 <path 
     style="fill:#4d4d4d" 
     d="m 5,4 c 0,7.264556 0,14.761814 0,21 l 7,0 0,3 10,0 0,-1 -9,0 0,-2 8,0 0,-17 5,0 0,11 1,0 0,-12 -6,0 0,-3 C 15.666667,4 10.333333,4 5,4 Z m 1,1 c 4.666667,0 9.333333,0 14,0 L 20,24 6,24 C 6,17.666667 6,11.333333 6,5 Z m 2,2 0,1 10,0 0,-1 z m 0,3 0,1 6,0 0,-1 z m 0,5 0,1 8,0 0,-1 z"
     />
 <path 
     style="fill:#1d99f3" 
     d="M 24 20 L 24 21 L 25 21 L 25 20 L 24 20 z M 8 21 L 8 22 L 13 22 L 13 21 L 8 21 z M 24 22 L 24 28 L 25 28 L 25 22 L 24 22 z "
     />
</svg>
